X:90
T: JUNG HAENSCHEN SASS AM HOHEN THOR
N: Z0090
O: Europa, Mitteleuropa, Deutschland, Herzogtum Berg
N: Modulation in T.11
R: Sagen - Lied, Romanze
M: 3/8
L: 1/16
K: D
E2 | A4B2 | =c4d2 | B4=c2 | A4
A2 | ^G2A2B2 | A4
B2 | =c4d2 | B4=c2 | A4^G2 | A4
G2 | =FED2F2 | EDC2
C2 | D2E2=F2 | G4A2 | E2=FED2

@@@ Tune index: 9848
